assets/icons/filter.svg

<?xml version="1.0" encoding="utf-8"?>
<!-- Uploaded to: SVG Repo, www.svgrepo.com, Generator: SVG Repo Mixer Tools -->
<svg width="800px" height="800px" viewBox="0 0 24 24" fill="none" xmlns="http://www.w3.org/2000/svg">
<g id="style=fill">
<g id="filter-circle">
<path id="vector (Stroke)" fill-rule="evenodd" clip-rule="evenodd" d="M7.75 17.5C7.75 17.0858 7.41421 16.75 7 16.75H2C1.58579 16.75 1.25 17.0858 1.25 17.5C1.25 17.9142 1.58579 18.25 2 18.25H7C7.41421 18.25 7.75 17.9142 7.75 17.5Z" fill="#000000"/>
<path id="vector (Stroke)_2" fill-rule="evenodd" clip-rule="evenodd" d="M16.25 6.5C16.25 6.08579 16.5858 5.75 17 5.75H22C22.4142 5.75 22.75 6.08579 22.75 6.5C22.75 6.91421 22.4142 7.25 22 7.25H17C16.5858 7.25 16.25 6.91421 16.25 6.5Z" fill="#000000"/>
<path id="vector (Stroke)_3" fill-rule="evenodd" clip-rule="evenodd" d="M22.75 17.5C22.75 17.0858 22.4142 16.75 22 16.75H13C12.5858 16.75 12.25 17.0858 12.25 17.5C12.25 17.9142 12.5858 18.25 13 18.25H22C22.4142 18.25 22.75 17.9142 22.75 17.5Z" fill="#000000"/>
<path id="vector (Stroke)_4" fill-rule="evenodd" clip-rule="evenodd" d="M1.25 6.5C1.25 6.08579 1.58579 5.75 2 5.75H11C11.4142 5.75 11.75 6.08579 11.75 6.5C11.75 6.91421 11.4142 7.25 11 7.25H2C1.58579 7.25 1.25 6.91421 1.25 6.5Z" fill="#000000"/>
<path id="vector (Stroke)_5" fill-rule="evenodd" clip-rule="evenodd" d="M13.75 17.3999C13.75 15.3288 12.0711 13.6499 10 13.6499C7.92893 13.6499 6.25 15.3288 6.25 17.3999C6.25 19.471 7.92893 21.1499 10 21.1499C12.0711 21.1499 13.75 19.471 13.75 17.3999Z" fill="#000000"/>
<path id="vector (Stroke)_6" fill-rule="evenodd" clip-rule="evenodd" d="M10.25 6.3999C10.25 4.32883 11.9289 2.6499 14 2.6499C16.0711 2.6499 17.75 4.32883 17.75 6.3999C17.75 8.47097 16.0711 10.1499 14 10.1499C11.9289 10.1499 10.25 8.47097 10.25 6.3999Z" fill="#000000"/>
</g>
</g>
</svg>

<svg xmlns="http://www.w3.org/2000/svg" width="800" height="800" fill="none" viewBox="0 0 24 24"><g fill="#000" fill-rule="evenodd" clip-rule="evenodd"><path d="M7.75 17.5a.75.75 0 0 0-.75-.75H2a.75.75 0 0 0 0 1.5h5a.75.75 0 0 0 .75-.75M16.25 6.5a.75.75 0 0 1 .75-.75h5a.75.75 0 0 1 0 1.5h-5a.75.75 0 0 1-.75-.75M22.75 17.5a.75.75 0 0 0-.75-.75h-9a.75.75 0 0 0 0 1.5h9a.75.75 0 0 0 .75-.75M1.25 6.5A.75.75 0 0 1 2 5.75h9a.75.75 0 0 1 0 1.5H2a.75.75 0 0 1-.75-.75"/><path d="M13.75 17.4a3.75 3.75 0 1 0-7.5 0 3.75 3.75 0 0 0 7.5 0M10.25 6.4a3.75 3.75 0 1 1 7.5 0 3.75 3.75 0 0 1-7.5 0"/></g></svg>
